img/icon-budgeting.svg

<svg xmlns="http://www.w3.org/2000/svg" width="72" height="72"><defs><linearGradient id="a" x1="0%" x2="99.58%" y1="0%" y2="99.58%"><stop offset="0%" stop-color="#33D35E"/><stop offset="100%" stop-color="#2AB6D9"/></linearGradient></defs><g fill="none" fill-rule="evenodd"><circle cx="36" cy="36" r="36" fill="url(#a)"/><path fill="#FFF" fill-rule="nonzero" d="M44.633 16a3.096 3.096 0 013.092 3.092v7.57c5.23.286 9.393 4.365 9.393 9.338 0 4.973-4.162 9.052-9.393 9.338v7.57A3.095 3.095 0 0144.633 56H27.099a3.095 3.095 0 01-3.092-3.092v-7.24a.587.587 0 111.174 0v3.522h21.37v-3.852a10.479 10.479 0 01-2.89-.568l-4.383 2.391c-.466.254-1.013-.22-.833-.716l1.308-3.596h-6.705a.592.592 0 01-.415-.172l-4.697-4.696a.593.593 0 01-.172-.415V24.728c0-.324.263-.587.587-.587h15.03c.324 0 .587.263.587.587v2.402c.819-.258 1.685-.419 2.583-.468v-4.478H25.18v20.704a.587.587 0 11-1.174 0V19.092A3.096 3.096 0 0127.099 16zm1.918 34.364H25.18v2.544a1.92 1.92 0 001.918 1.918h17.534a1.92 1.92 0 001.918-1.918v-2.544zm-9.433.705c.325 0 .587.262.587.587v1.878a.587.587 0 01-.587.587h-2.505a.587.587 0 01-.587-.587v-1.878c0-.325.263-.587.587-.587zm-.587 1.174h-1.33v.704h1.33v-.704zM47.138 27.82c-4.856 0-8.806 3.67-8.806 8.18 0 2.217.94 4.293 2.647 5.846.177.16.239.41.157.635l-1.056 2.905 3.251-1.773a.587.587 0 01.49-.034 9.343 9.343 0 003.317.601c4.856 0 8.806-3.67 8.806-8.18s-3.95-8.18-8.806-8.18zm0 1.33c.324 0 .587.264.587.588v1.291h.04a2.469 2.469 0 012.465 2.466v.626a.587.587 0 11-1.174 0v-.626c0-.712-.58-1.291-1.292-1.291h-.94c-.884 0-1.604.72-1.604 1.604 0 .885.72 1.605 1.605 1.605h.626a2.782 2.782 0 012.779 2.779c0 1.44-1.1 2.627-2.505 2.765v1.305a.587.587 0 11-1.174 0v-1.291h-.04a2.469 2.469 0 01-2.465-2.466.587.587 0 111.174 0c0 .712.58 1.291 1.292 1.291h.939c.885 0 1.605-.72 1.605-1.604 0-.885-.72-1.605-1.605-1.605h-.626a2.782 2.782 0 01-2.78-2.779c0-1.44 1.102-2.627 2.506-2.765v-1.305c0-.324.263-.587.587-.587zm-4.345-3.835H28.938v11.663h4.11c.324 0 .587.263.587.588v4.11h5.567c-1.327-1.622-2.044-3.593-2.044-5.676 0-1.112.208-2.18.59-3.17h-6.266a.587.587 0 110-1.174h6.82c.399-.711.893-1.369 1.466-1.957h-2.023a.587.587 0 110-1.174h3.13c.076 0 .148.014.214.04.53-.38 1.1-.71 1.704-.985v-2.265zM32.461 38.153h-2.692l2.692 2.692v-2.692zm3.405-3.366a.587.587 0 110 1.174h-4.384a.587.587 0 110-1.174zm-.626-6.263a.587.587 0 110 1.175h-3.758a.587.587 0 110-1.175zm9.393-11.35H27.099a1.92 1.92 0 00-1.918 1.918v1.918h21.37v-1.918a1.92 1.92 0 00-1.918-1.918zm-7.515 1.33a.587.587 0 110 1.175h-2.505a.587.587 0 110-1.174z"/></g></svg>

<?xml version="1.0" encoding="UTF-8" standalone="no"?>
<!DOCTYPE svg PUBLIC "-//W3C//DTD SVG 1.1//EN" "http://www.w3.org/Graphics/SVG/1.1/DTD/svg11.dtd">
<svg width="100%" height="100%" viewBox="0 0 72 72" version="1.1" xmlns="http://www.w3.org/2000/svg" xmlns:xlink="http://www.w3.org/1999/xlink" xml:space="preserve" xmlns:serif="http://www.serif.com/" style="fill-rule:evenodd;clip-rule:evenodd;stroke-linejoin:round;stroke-miterlimit:2;">
    <g>
        <circle cx="36" cy="36" r="36" style="fill:url(#_Linear1);"/>
        <path d="M44.633,16C46.328,16.002 47.723,17.397 47.725,19.092L47.725,26.662C52.955,26.948 57.118,31.027 57.118,36C57.118,40.973 52.956,45.052 47.725,45.338L47.725,52.908C47.723,54.604 46.329,55.998 44.633,56L27.099,56C25.403,55.998 24.009,54.604 24.007,52.908L24.007,45.668C24.007,45.346 24.272,45.081 24.594,45.081C24.916,45.081 25.181,45.346 25.181,45.668L25.181,49.19L46.551,49.19L46.551,45.338C45.566,45.286 44.593,45.094 43.661,44.77L39.278,47.161C38.812,47.415 38.265,46.941 38.445,46.445L39.753,42.849L33.048,42.849C32.892,42.848 32.743,42.787 32.633,42.677L27.936,37.981C27.827,37.871 27.765,37.721 27.764,37.566L27.764,24.728C27.764,24.404 28.027,24.141 28.351,24.141L43.381,24.141C43.705,24.141 43.968,24.404 43.968,24.728L43.968,27.13C44.787,26.872 45.653,26.711 46.551,26.662L46.551,22.184L25.18,22.184L25.18,42.888C25.18,43.21 24.915,43.475 24.593,43.475C24.271,43.475 24.006,43.21 24.006,42.888L24.006,19.092C24.008,17.396 25.403,16.002 27.099,16L44.633,16ZM46.551,50.364L25.18,50.364L25.18,52.908C25.181,53.96 26.046,54.825 27.098,54.826L44.632,54.826C45.684,54.825 46.549,53.96 46.55,52.908L46.55,50.364L46.551,50.364ZM37.118,51.069C37.443,51.069 37.705,51.331 37.705,51.656L37.705,53.534C37.705,53.856 37.44,54.121 37.118,54.121L34.613,54.121C34.291,54.121 34.026,53.856 34.026,53.534L34.026,51.656C34.026,51.331 34.289,51.069 34.613,51.069L37.118,51.069ZM36.531,52.243L35.201,52.243L35.201,52.947L36.531,52.947L36.531,52.243ZM47.138,27.82C42.282,27.82 38.332,31.49 38.332,36C38.332,38.217 39.272,40.293 40.979,41.846C41.156,42.006 41.218,42.256 41.136,42.481L40.08,45.386L43.331,43.613C43.481,43.531 43.661,43.518 43.821,43.579C44.881,43.979 46.005,44.182 47.138,44.18C51.994,44.18 55.944,40.51 55.944,36C55.944,31.49 51.994,27.82 47.138,27.82ZM47.138,29.15C47.462,29.15 47.725,29.414 47.725,29.738L47.725,31.029L47.765,31.029C49.117,31.031 50.228,32.143 50.23,33.495L50.23,34.121C50.23,34.443 49.965,34.708 49.643,34.708C49.321,34.708 49.056,34.443 49.056,34.121L49.056,33.495C49.056,32.783 48.476,32.204 47.764,32.204L46.824,32.204C45.94,32.204 45.22,32.924 45.22,33.808C45.22,34.693 45.94,35.413 46.825,35.413L47.451,35.413C48.975,35.415 50.228,36.668 50.23,38.192C50.23,39.632 49.13,40.819 47.725,40.957L47.725,42.262C47.725,42.584 47.46,42.849 47.138,42.849C46.816,42.849 46.551,42.584 46.551,42.262L46.551,40.971L46.511,40.971C45.159,40.969 44.048,39.857 44.046,38.505C44.046,38.183 44.311,37.918 44.633,37.918C44.955,37.918 45.22,38.183 45.22,38.505C45.22,39.217 45.8,39.796 46.512,39.796L47.451,39.796C48.336,39.796 49.056,39.076 49.056,38.192C49.056,37.307 48.336,36.587 47.451,36.587L46.825,36.587C45.301,36.586 44.047,35.332 44.045,33.808C44.045,32.368 45.147,31.181 46.551,31.043L46.551,29.738C46.551,29.414 46.814,29.151 47.138,29.151L47.138,29.15ZM42.793,25.315L28.938,25.315L28.938,36.978L33.048,36.978C33.372,36.978 33.635,37.241 33.635,37.566L33.635,41.676L39.202,41.676C37.875,40.054 37.158,38.083 37.158,36C37.158,34.888 37.366,33.82 37.748,32.83L31.482,32.83C31.16,32.83 30.895,32.565 30.895,32.243C30.895,31.921 31.16,31.656 31.482,31.656L38.302,31.656C38.701,30.945 39.195,30.287 39.768,29.699L37.745,29.699C37.423,29.699 37.158,29.434 37.158,29.112C37.158,28.79 37.423,28.525 37.745,28.525L40.875,28.525C40.951,28.525 41.023,28.539 41.089,28.565C41.619,28.185 42.189,27.855 42.793,27.58L42.793,25.315ZM32.461,38.153L29.769,38.153L32.461,40.845L32.461,38.153ZM35.866,34.787C36.188,34.787 36.453,35.052 36.453,35.374C36.453,35.696 36.188,35.961 35.866,35.961L31.482,35.961C31.16,35.961 30.895,35.696 30.895,35.374C30.895,35.052 31.16,34.787 31.482,34.787L35.866,34.787ZM35.24,28.524C35.562,28.524 35.828,28.789 35.828,29.112C35.828,29.434 35.562,29.699 35.24,29.699L31.482,29.699C31.16,29.699 30.895,29.434 30.895,29.112C30.895,28.789 31.16,28.524 31.482,28.524L35.24,28.524ZM44.633,17.174L27.099,17.174C26.047,17.175 25.182,18.04 25.181,19.092L25.181,21.01L46.551,21.01L46.551,19.092C46.55,18.04 45.685,17.175 44.633,17.174ZM37.118,18.504C37.44,18.504 37.706,18.769 37.706,19.091C37.706,19.414 37.44,19.679 37.118,19.679L34.613,19.679C34.291,19.679 34.026,19.414 34.026,19.092C34.026,18.77 34.291,18.505 34.613,18.505C34.613,18.505 37.118,18.504 37.118,18.504Z" style="fill:white;fill-rule:nonzero;"/>
    </g>
    <defs>
        <linearGradient id="_Linear1" x1="0" y1="0" x2="1" y2="0" gradientUnits="userSpaceOnUse" gradientTransform="matrix(71.6976,71.6976,-71.6976,71.6976,0,0)"><stop offset="0" style="stop-color:rgb(51,211,94);stop-opacity:1"/><stop offset="1" style="stop-color:rgb(42,182,217);stop-opacity:1"/></linearGradient>
    </defs>
</svg>
